icons/plexis/48/kuickshow.svg

<svg viewBox="0 0 48 48" xmlns="http://www.w3.org/2000/svg" xmlns:xlink="http://www.w3.org/1999/xlink">
  <linearGradient id="a" gradientTransform="matrix(0 -1 1 0 -.0000015 47.999998)" gradientUnits="userSpaceOnUse" x1="1" x2="47">
    <stop offset="0" stop-color="#f49950"/>
    <stop offset="1" stop-color="#f5a562"/>
  </linearGradient>
  <path d="m47 24c0 22.703-.297 23-23 23-22.703 0-23-.297-23-23 0-22.703.297-23 23-23 22.703 0 23 .297 23 23z" fill="url(#a)"/>
  <path d="m15 13c-.379 0-1 .586-1 1v22c0 .414.621 1 1 1h19.898c.379 0 1.102-.586 1.102-1v-22c0-.414-.723-1-1.102-1z" opacity=".1" transform=""/>
  <path d="m14 12c-.379 0-1 .586-1 1v22c0 .414.621 1 1 1h19.898c.379 0 1.102-.586 1.102-1v-22c0-.414-.723-1-1.102-1z" fill="#ecedf1"/>
  <path d="m15 14h18v20h-18" fill="#5acffb"/>
  <path d="m28.5 16c-1.383 0-2.5 1.121-2.5 2.5 0 1.379 1.117 2.5 2.5 2.5 1.379 0 2.5-1.121 2.5-2.5 0-1.379-1.121-2.5-2.5-2.5z" fill="#ffec95"/>
  <path d="m29 25l-7 9h11v-2z" fill="#439c62"/>
  <path d="m21 23l-6 9v2h13z" fill="#45b969"/>
</svg>

<svg xmlns="http://www.w3.org/2000/svg" viewBox="0 0 48 48">
 <defs>
  <linearGradient id="linearGradient3764" x1="1" x2="47" gradientUnits="userSpaceOnUse" gradientTransform="matrix(0,-1,1,0,-1.5e-6,47.999998)">
   <stop style="stop-color:#f49950;stop-opacity:1"/>
   <stop offset="1" style="stop-color:#f5a562;stop-opacity:1"/>
  </linearGradient>
 </defs>
 <g>
  
  
  
 </g>
 <g>
  <path d="m 47,24 C 47,46.703 46.703,47 24,47 1.297,47 1,46.703 1,24 1,1.297 1.297,1 24,1 46.703,1 47,1.297 47,24 z" style="fill:url(#linearGradient3764);fill-opacity:1"/>
 </g>
 <g>
  <g>
   <g transform="translate(1,1)">
    <g style="opacity:0.1">
     <!-- color: #f5a562 -->
     <g>
      <path d="m 15 13 c -0.379 0 -1 0.586 -1 1 l 0 22 c 0 0.414 0.621 1 1 1 l 19.898 0 c 0.379 0 1.102 -0.586 1.102 -1 l 0 -22 c 0 -0.414 -0.723 -1 -1.102 -1 l -19.898 0 z" transform="translate(-1,-1)" style="fill:#000;fill-opacity:1;stroke:none;fill-rule:nonzero"/>
     </g>
    </g>
   </g>
  </g>
 </g>
 <g>
  <g>
   <!-- color: #f5a562 -->
   <g>
    <path d="m 14 12 c -0.379 0 -1 0.586 -1 1 l 0 22 c 0 0.414 0.621 1 1 1 l 19.898 0 c 0.379 0 1.102 -0.586 1.102 -1 l 0 -22 c 0 -0.414 -0.723 -1 -1.102 -1 z" style="fill:#ecedf1;fill-opacity:1;stroke:none;fill-rule:nonzero"/>
    <path d="m 15 14 18 0 0 20 -18 0" style="fill:#5acffb;fill-opacity:1;stroke:none;fill-rule:nonzero"/>
    <path d="M 28.5 16 C 27.117 16 26 17.121 26 18.5 C 26 19.879 27.117 21 28.5 21 C 29.879 21 31 19.879 31 18.5 C 31 17.121 29.879 16 28.5 16 z " style="fill:#ffec95;fill-opacity:1;stroke:none;fill-rule:nonzero"/>
    <path d="m 29 25 -7 9 11 0 0 -2 z" style="fill:#439c62;fill-opacity:1;stroke:none;fill-rule:nonzero"/>
    <path d="m 21 23 -6 9 0 2 13 0 z" style="fill:#45b969;fill-opacity:1;stroke:none;fill-rule:nonzero"/>
   </g>
  </g>
 </g>
 <g>
  
 </g>
</svg>
